images/edit-image.svg

<?xml version="1.0" encoding="utf-8"?>
<!-- Generated by IcoMoon.io -->
<!DOCTYPE svg PUBLIC "-//W3C//DTD SVG 1.1//EN" "http://www.w3.org/Graphics/SVG/1.1/DTD/svg11.dtd">
<svg version="1.1" xmlns="http://www.w3.org/2000/svg" xmlns:xlink="http://www.w3.org/1999/xlink" width="30" height="30" viewBox="0 0 30 30">
<g>
	<line stroke-width="1" x1="" y1="" x2="" y2="" stroke="#449FDB" opacity=""></line>
</g>
	<path d="M21.116 26.028l3.896-3.896v0.896c0 1.658-1.342 3-2.997 3h-0.899zM14.013 25.977h3.39l-3.39-3.393v3.393zM28.894 11.097c-0.938-0.938-2.080-1.311-2.557-0.834l-1.324 1.322v-2.598c0-1.655-1.342-2.987-2.997-2.987h-19.018c-1.656 0-2.998 1.332-2.998 2.987v14.041c0 1.659 1.342 2.972 2.998 2.972h10.002v-2h-9.989c-0.55 0-1.011-0.475-1.011-1.027v-13.993c0-0.55 0.461-0.998 1.011-0.998h18.991c0.551 0.001 0.998 0.448 0.998 0.998v4.62l-8.137 8.134 3.393 3.391 11.472-11.472c0.474-0.476 0.102-1.622-0.834-2.556zM5.171 14.777c0 1.551 1.257 2.808 2.81 2.808 1.55 0 2.807-1.257 2.807-2.808 0-1.552-1.257-2.809-2.807-2.809-1.552 0.001-2.81 1.258-2.81 2.809z" fill="#000000"></path>
</svg>

<?xml version="1.0" encoding="UTF-8" standalone="no"?>
<!-- Created with Inkscape (http://www.inkscape.org/) -->

<svg
   xmlns:dc="http://purl.org/dc/elements/1.1/"
   xmlns:cc="http://creativecommons.org/ns#"
   xmlns:rdf="http://www.w3.org/1999/02/22-rdf-syntax-ns#"
   xmlns:svg="http://www.w3.org/2000/svg"
   xmlns="http://www.w3.org/2000/svg"
   xmlns:inkscape="http://www.inkscape.org/namespaces/inkscape"
   version="1.1"
   width="30"
   height="30"
   viewBox="0 0 30 30"
   id="svg2">
  <metadata
     id="metadata10">
    <rdf:RDF>
      <cc:Work
         rdf:about="">
        <dc:format>image/svg+xml</dc:format>
        <dc:type
           rdf:resource="http://purl.org/dc/dcmitype/StillImage" />
      </cc:Work>
    </rdf:RDF>
  </metadata>
  <defs
     id="defs8" />
  <path
     d="m 21.116,26.028 3.896,-3.896 v 0.896 c 0,1.658 -1.342,3 -2.997,3 h -0.9 z m -7.103,-0.05 h 3.39 l -3.39,-3.394 v 3.393 z m 14.88,-14.88 c -0.937,-0.94 -2.08,-1.312 -2.556,-0.835 l -1.324,1.322 V 8.987 C 25.013,7.332 23.67,6 22.016,6 H 2.998 C 1.342,6 0,7.332 0,8.987 v 14.04 C 0,24.687 1.342,26 2.998,26 H 13 V 24 H 3.01 C 2.46,24 2,23.525 2,22.973 V 8.98 C 2,8.43 2.46,7.982 3.01,7.982 H 22.002 C 22.552,7.982 23,8.43 23,8.98 v 4.62 l -8.137,8.134 3.393,3.39 11.472,-11.47 c 0.474,-0.477 0.102,-1.623 -0.834,-2.557 z M 5.17,14.778 c 0,1.55 1.26,2.807 2.81,2.807 1.55,0 2.81,-1.257 2.81,-2.808 0,-1.552 -1.258,-2.81 -2.808,-2.81 -1.55,0.002 -2.81,1.26 -2.81,2.81 z"
     inkscape:connector-curvature="0"
     id="path4" />
</svg>
